src/components/Icon/assets/hand-wave.svg

<svg width="24" height="24" viewBox="0 0 24 24" fill="none" xmlns="http://www.w3.org/2000/svg">
<g id="hand-wave">
<g id="Combined Shape">
<path d="M18.0002 3.00012V1.00012C20.7572 1.00012 23.0002 3.23912 23.0002 5.99212H21.0002C21.0002 4.34312 19.6542 3.00012 18.0002 3.00012Z" fill="#242428"/>
<path fill-rule="evenodd" clip-rule="evenodd" d="M15.7213 4.74823C15.2493 5.22023 14.9913 5.84823 14.9923 6.51523V7.53223L9.9253 2.46523C8.9503 1.49023 7.3653 1.49023 6.3903 2.46523C6.1673 2.68723 6.0013 2.94423 5.8803 3.21723C5.0713 3.03423 4.1893 3.25123 3.5613 3.88023C3.0883 4.35123 2.8283 4.98023 2.8303 5.65023C2.8303 5.83823 2.8563 6.02123 2.8963 6.20023C2.6253 6.32123 2.3693 6.48623 2.1473 6.70823C1.1723 7.68323 1.1743 9.26923 2.1503 10.2472L2.5303 10.6272C2.3973 10.7162 2.2703 10.8182 2.1523 10.9352C1.6783 11.4102 1.4153 12.0402 1.4153 12.7102C1.4143 13.3812 1.6753 14.0122 2.1493 14.4872L7.2223 19.5612C7.9323 20.2712 8.7613 20.8332 9.6863 21.2292C10.5843 21.6142 11.5253 21.8022 12.4563 21.8022C14.2713 21.8022 16.0483 21.0912 17.3933 19.7452L17.9453 19.1942C19.2663 17.8732 19.9943 16.1172 19.9953 14.2492L20.0003 6.47523C20.0003 5.81623 19.7453 5.19823 19.2793 4.73223C18.3643 3.81623 16.6843 3.78423 15.7213 4.74823ZM17.9953 14.2472C17.9943 15.5822 17.4743 16.8372 16.5313 17.7802L15.9793 18.3312C14.5253 19.7852 12.3653 20.2012 10.4743 19.3922C9.7843 19.0962 9.1653 18.6772 8.6373 18.1472L3.5643 13.0742C3.4683 12.9772 3.4143 12.8492 3.4153 12.7132C3.4153 12.5762 3.4693 12.4482 3.5663 12.3502C3.7523 12.1642 4.0553 12.1632 4.2423 12.3502L6.7403 14.8372L7.4503 15.5472L8.8643 14.1332L3.5653 8.83323C3.3683 8.63623 3.3663 8.31723 3.5613 8.12223C3.6873 7.99623 3.8353 7.97623 3.9133 7.97623C4.0483 7.97723 4.1763 8.03023 4.2723 8.12623L9.5723 13.4262L10.9863 12.0122L4.9793 6.00523C4.8493 5.87523 4.8303 5.72523 4.8303 5.64623C4.8303 5.56923 4.8493 5.42123 4.9753 5.29423C5.1703 5.10023 5.4893 5.10123 5.6863 5.29723L6.3883 5.99823C6.3883 5.99923 6.3893 6.00023 6.3903 6.00123L11.6933 11.3042L13.1073 9.89023L7.8033 4.58523C7.6093 4.39023 7.6093 4.07423 7.8033 3.88023C7.9983 3.68523 8.3163 3.68423 8.5113 3.87923L15.1183 10.4872C15.4353 10.8022 15.9053 10.8952 16.3173 10.7222C16.7273 10.5512 16.9933 10.1522 16.9933 9.70723L16.9923 6.51223C16.9923 6.37923 17.0433 6.25523 17.1363 6.16123C17.3233 5.97423 17.7603 6.04323 17.8653 6.14623C17.9153 6.19723 18.0003 6.30723 18.0003 6.47323L17.9953 14.2472Z" fill="#242428"/>
<path d="M3.0002 17.004H1.0002C1.0002 19.757 3.2392 21.996 5.9922 21.996V19.996C4.3422 19.996 3.0002 18.653 3.0002 17.004Z" fill="#242428"/>
</g>
</g>
</svg>

<svg xmlns="http://www.w3.org/2000/svg" width="24" height="24" fill="none" viewBox="0 0 24 24">
    <path fill="#65676A" d="M18 3V1c2.757 0 5 2.24 5 4.992h-2C21 4.343 19.654 3 18 3z"/>
    <path fill="#65676A" fill-rule="evenodd" d="M15.721 4.748c-.472.472-.73 1.1-.729 1.767v1.017L9.925 2.465c-.975-.975-2.56-.975-3.535 0-.223.222-.389.48-.51.752-.809-.183-1.69.034-2.319.663-.473.471-.733 1.1-.73 1.77 0 .188.025.371.065.55-.27.121-.527.286-.749.508-.975.975-.973 2.561.003 3.54l.38.38c-.133.088-.26.19-.378.307-.474.475-.737 1.105-.737 1.775 0 .671.26 1.302.734 1.777l5.073 5.074c.71.71 1.54 1.272 2.464 1.668.898.385 1.84.573 2.77.573 1.815 0 3.592-.71 4.937-2.057l.552-.55c1.321-1.322 2.05-3.078 2.05-4.946L20 6.475c0-.659-.255-1.277-.72-1.743-.916-.916-2.596-.948-3.559.016zm2.274 9.5c0 1.334-.52 2.59-1.464 3.532l-.552.551c-1.454 1.454-3.614 1.87-5.505 1.061-.69-.296-1.309-.715-1.837-1.245l-5.073-5.073c-.096-.097-.15-.225-.149-.36 0-.138.054-.266.151-.364.186-.186.49-.187.676 0l2.498 2.487.71.71 1.414-1.414-5.299-5.3c-.197-.197-.199-.516-.004-.71.126-.127.274-.147.352-.147.135.001.263.054.36.15l5.3 5.3 1.413-1.414L4.98 6.005c-.13-.13-.149-.28-.149-.359 0-.077.02-.225.145-.352.195-.194.514-.193.711.003l.702.701.002.003 5.303 5.303 1.414-1.414-5.304-5.305c-.194-.195-.194-.51 0-.705.195-.195.513-.196.708 0l6.607 6.607c.317.315.787.408 1.2.235.41-.17.675-.57.675-1.015V6.512c0-.133.05-.257.143-.35.187-.188.624-.119.73-.016.05.051.134.161.134.327l-.005 7.774z" clip-rule="evenodd"/>
    <path fill="#65676A" d="M3 17.004H1c0 2.753 2.24 4.992 4.992 4.992v-2C4.342 19.996 3 18.653 3 17.004z"/>
</svg>
